svg/u260e.svg

<svg viewBox="0 0 128 128" xmlns="http://www.w3.org/2000/svg">
  <g>
    <g>
      <g>
        <path d="M120.44,34.72C115.11,28.18,96.41,16.23,64,16.23S12.89,28.18,7.56,34.72S1.97,48.87,2.23,54.28 c0.01,0.3,0.06,0.75,0.15,1.27c0.63,3.61,1.72,6.2,16.52,6.2c15.79,0,17.54-3.89,17.64-6.74c0.16-4.64,0.71-10.79,2.8-12.09 c2.47-1.52,4.58-6.93,24.67-7.24c20.09,0.32,22.2,5.72,24.67,7.24c2.1,1.3,2.64,7.44,2.8,12.09c0.1,2.85,1.85,6.74,17.64,6.74 c14.79,0,15.89-2.6,16.52-6.2c0.09-0.52,0.13-0.97,0.15-1.27C126.03,48.87,125.78,41.27,120.44,34.72z" fill="#C62828"/>
        <path d="M109.11,65.76c-9.45,0-20.34-1.1-20.63-9.64c-0.06-1.66,1.24-3.05,2.89-3.1 c1.64-0.06,3.04,1.24,3.1,2.89c0.04,1.16,1.55,3.85,14.64,3.85c15.53,0,16.73-6.08,16.73-6.08 C126.83,56.12,129.12,64.89,109.11,65.76z" fill="#912221"/>
        <path d="M18.88,64.76c9.45,0,20.34-1.1,20.63-9.64c0.06-1.66-1.24-3.05-2.89-3.1 c-1.64-0.06-3.04,1.24-3.1,2.89c-0.04,1.16-1.55,3.85-14.64,3.85c-15.53,0-16.73-6.08-16.73-6.08 C1.19,54.9-1.13,63.89,18.88,64.76z" fill="#912221"/>
        <path d="M98.04,30.12c-5.26-2.18-15.79-5.14-34.04-5.14s-28.77,2.96-34.04,5.14 c-1.73,0.71-1.89,3.07-0.29,4.04c2.99,1.82,6.71,5.29,7.67,11.62c0.03,0.21,0.09,0.4,0.15,0.59c0.42-1.64,1-2.92,1.83-3.43 c2.47-1.52,4.58-6.93,24.67-7.24c20.09,0.32,22.2,5.72,24.67,7.24c0.83,0.51,1.41,1.79,1.83,3.43c0.06-0.19,0.12-0.38,0.15-0.59 c0.96-6.32,4.68-9.8,7.67-11.62C99.92,33.19,99.77,30.83,98.04,30.12z" fill="#912221"/>
        <path d="M119.54,46.36c-2.05-5.01-3.8-7.1-9.62-9.4c-2.1-0.83-3.36-2.37-2.84-3.65 c0.52-1.28,1.88-1.73,4.05-1.16c6.09,1.58,10.73,7.29,10.74,13.99C121.86,49.26,120.34,48.31,119.54,46.36z" fill="#F44336"/>
        <path d="M10.41,36.32c0.38,1.27,2.86,0.21,5.87-0.03c4.17-0.33,5.4,0.97,7.25,2.91 c1.55,1.63,3.77,1.66,4.59,0.55c0.83-1.11,0.34-2.34-1.09-4.07c-1.06-1.29-5.63-4.36-12.38-2.54 C13.12,33.57,10.01,34.98,10.41,36.32z" fill="#F44336"/>
      </g>
      <path d="M18.89,95.61v21.29c0,3.92,3.38,7.1,7.54,7.1h75.14c4.16,0,7.54-3.18,7.54-7.1l0-21.78L18.89,95.61 z" fill="#C62828"/>
      <path d="M108.89,92.03c0,0-7.81-36.32-9.07-42.74s-3.45-8.31-7.15-8.37c-2.49-0.04-5.12-1.75-5.56-4.82 c-0.44-3.03-0.54-4.81-0.72-6.15c-0.18-1.34-0.13-3.3-2.05-3.3h-3.81c-1.7,0-1.84,0.33-2.12,2.73c-0.28,2.41-0.66,7.05-1.6,9.37 c-0.81,1.99-2.95,2.17-4.17,2.17H55.35c-1.21,0-3.36-0.18-4.17-2.17c-0.94-2.32-1.33-6.97-1.6-9.37 c-0.28-2.41-0.42-2.73-2.12-2.73h-3.81c-1.91,0-1.86,1.96-2.05,3.3c-0.18,1.34-0.28,3.12-0.72,6.15 c-0.45,3.07-3.07,4.78-5.56,4.82c-3.7,0.06-5.89,1.95-7.15,8.37s-9.07,42.74-9.07,42.74c-1.05,7.07,1.4,10.03,14.08,10.03h61.62 C107.5,102.06,109.95,99.1,108.89,92.03z" fill="#FF4638"/>
      <g>
        <path d="M88.5,58.82l-3.72-6.07l-8.24-1.42l-3,1.79c-0.7,0.42-1.57,0.39-2.25-0.05l-1.55-1.02l-11.41,0.09 l-1.19,0.86c-0.69,0.5-1.62,0.53-2.34,0.09l-2.74-1.68L39.5,58.82l-4.47,25.5l0.21,4.61c0.04,0.94,0.82,1.68,1.76,1.68h54.01 c0.94,0,1.72-0.74,1.76-1.68l0.21-4.61L88.5,58.82z" fill="#4E342E"/>
        <g>
          <path d="M78.64,72.46h10.31c0.97,0,1.71-0.88,1.54-1.83l-0.95-5.45c-0.13-0.75-0.78-1.29-1.54-1.29h-10 c-0.94,0-1.66,0.82-1.55,1.75l0.65,5.45C77.18,71.87,77.85,72.46,78.64,72.46z" fill="#F5F5F5"/>
          <path d="M59.39,60.4h9.35c0.89,0,1.61-0.75,1.56-1.64l-0.31-5.95c-0.04-0.83-0.73-1.48-1.56-1.48H59.7 c-0.83,0-1.52,0.65-1.56,1.48l-0.31,5.95C57.78,59.65,58.5,60.4,59.39,60.4z" fill="#F5F5F5"/>
          <path d="M69.75,76.97H58.38c-0.83,0-1.52,0.65-1.56,1.48l-0.28,5.45c-0.05,0.89,0.67,1.64,1.56,1.64 h11.93c0.89,0,1.61-0.75,1.56-1.64l-0.28-5.45C71.27,77.62,70.58,76.97,69.75,76.97z" fill="#F5F5F5"/>
          <path d="M58.79,72.46h10.54c0.89,0,1.61-0.75,1.56-1.64l-0.28-5.45c-0.04-0.83-0.73-1.48-1.56-1.48h-9.98 c-0.83,0-1.52,0.65-1.56,1.48l-0.28,5.45C57.19,71.71,57.9,72.46,58.79,72.46z" fill="#F5F5F5"/>
          <path d="M48.51,76.97H37.63c-0.76,0-1.41,0.55-1.54,1.29l-0.95,5.45c-0.17,0.96,0.57,1.83,1.54,1.83 h11.19c0.79,0,1.46-0.59,1.55-1.38l0.65-5.45C50.17,77.79,49.45,76.97,48.51,76.97z" fill="#F5F5F5"/>
          <path d="M39.05,72.46h10.43c0.79,0,1.46-0.59,1.55-1.38l0.65-5.45c0.11-0.93-0.61-1.75-1.55-1.75H40.01 c-0.76,0-1.41,0.55-1.54,1.29l-0.95,5.45C37.34,71.58,38.08,72.46,39.05,72.46z" fill="#F5F5F5"/>
          <path d="M77.26,60.4h9.66c0.97,0,1.71-0.88,1.54-1.83l-1.04-5.95c-0.13-0.75-0.78-1.29-1.54-1.29h-9.33 c-0.94,0-1.66,0.82-1.55,1.75l0.71,5.95C75.8,59.81,76.47,60.4,77.26,60.4z" fill="#F5F5F5"/>
          <path d="M52.42,59.02l0.71-5.95c0.11-0.93-0.61-1.75-1.55-1.75h-9.46c-0.76,0-1.41,0.55-1.54,1.29 l-1.04,5.95c-0.17,0.96,0.57,1.83,1.54,1.83h9.79C51.66,60.4,52.33,59.81,52.42,59.02z" fill="#F5F5F5"/>
          <path d="M78.06,78.72l0.65,5.45c0.09,0.79,0.76,1.38,1.55,1.38h11.06c0.97,0,1.71-0.88,1.54-1.83 l-0.95-5.45c-0.13-0.75-0.78-1.29-1.54-1.29H79.61C78.68,76.97,77.95,77.79,78.06,78.72z" fill="#F5F5F5"/>
        </g>
      </g>
    </g>
    <path d="M52.9,73.66" fill="#424242"/>
  </g>
</svg>

<svg viewBox="0 0 128 128" xmlns="http://www.w3.org/2000/svg">
  <defs/>
  <path d="M120.44,34.72 C115.11,28.18 96.41,16.23 64,16.23 C31.59,16.23 12.89,28.18 7.56,34.72 C2.23,41.26 1.97,48.87 2.23,54.28 C2.24,54.58 2.29,55.03 2.38,55.55 C3.01,59.16 4.1,61.75 18.9,61.75 C34.69,61.75 36.44,57.86 36.54,55.01 C36.7,50.37 37.25,44.22 39.34,42.92 C41.81,41.4 43.92,35.99 64.01,35.68 C84.1,36 86.21,41.4 88.68,42.92 C90.78,44.22 91.32,50.36 91.48,55.01 C91.58,57.86 93.33,61.75 109.12,61.75 C123.91,61.75 125.01,59.15 125.64,55.55 C125.73,55.03 125.77,54.58 125.79,54.28 C126.03,48.87 125.78,41.27 120.44,34.72 Z" fill="#C62828"/>
  <path d="M109.11,65.76 C99.66,65.76 88.77,64.66 88.48,56.12 C88.42,54.46 89.72,53.07 91.37,53.02 C93.01,52.96 94.41,54.26 94.47,55.91 C94.51,57.07 96.02,59.76 109.11,59.76 C124.64,59.76 125.84,53.68 125.84,53.68 C126.83,56.12 129.12,64.89 109.11,65.76 Z" fill="#912221"/>
  <path d="M18.88,64.76 C28.33,64.76 39.22,63.66 39.51,55.12 C39.57,53.46 38.27,52.07 36.62,52.02 C34.98,51.96 33.58,53.26 33.52,54.91 C33.48,56.07 31.97,58.76 18.88,58.76 C3.35,58.76 2.15,52.68 2.15,52.68 C1.19,54.9 -1.13,63.89 18.88,64.76 Z" fill="#912221"/>
  <path d="M98.04,30.12 C92.78,27.94 82.25,24.98 64,24.98 C45.75,24.98 35.23,27.94 29.96,30.12 C28.23,30.83 28.07,33.19 29.67,34.16 C32.66,35.98 36.38,39.45 37.34,45.78 C37.37,45.99 37.43,46.18 37.49,46.37 C37.91,44.73 38.49,43.45 39.32,42.94 C41.79,41.42 43.9,36.01 63.99,35.7 C84.08,36.02 86.19,41.42 88.66,42.94 C89.49,43.45 90.07,44.73 90.49,46.37 C90.55,46.18 90.61,45.99 90.64,45.78 C91.6,39.46 95.32,35.98 98.31,34.16 C99.92,33.19 99.77,30.83 98.04,30.12 Z" fill="#912221"/>
  <path d="M119.54,46.36 C117.49,41.35 115.74,39.26 109.92,36.96 C107.82,36.13 106.56,34.59 107.08,33.31 C107.6,32.03 108.96,31.58 111.13,32.15 C117.22,33.73 121.86,39.44 121.87,46.14 C121.86,49.26 120.34,48.31 119.54,46.36 Z" fill="#F44336"/>
  <path d="M10.41,36.32 C10.79,37.59 13.27,36.53 16.28,36.29 C20.45,35.96 21.68,37.26 23.53,39.2 C25.08,40.83 27.3,40.86 28.12,39.75 C28.95,38.64 28.46,37.41 27.03,35.68 C25.97,34.39 21.4,31.32 14.65,33.14 C13.12,33.57 10.01,34.98 10.41,36.32 Z" fill="#F44336"/>
  <path d="M18.89,95.61 L18.89,116.9 C18.89,120.82 22.27,124 26.43,124 L101.57,124 C105.73,124 109.11,120.82 109.11,116.9 L109.11,95.12 L18.89,95.61 Z" fill="#C62828"/>
  <path d="M108.89,92.03 C108.89,92.03 101.08,55.71 99.82,49.29 C98.56,42.87 96.37,40.98 92.67,40.92 C90.18,40.88 87.55,39.17 87.11,36.1 C86.67,33.07 86.57,31.29 86.39,29.95 C86.21,28.61 86.26,26.65 84.34,26.65 L80.53,26.65 C78.83,26.65 78.69,26.98 78.41,29.38 C78.13,31.79 77.75,36.43 76.81,38.75 C76,40.74 73.86,40.92 72.64,40.92 L55.35,40.92 C54.14,40.92 51.99,40.74 51.18,38.75 C50.24,36.43 49.85,31.78 49.58,29.38 C49.3,26.97 49.16,26.65 47.46,26.65 L43.65,26.65 C41.74,26.65 41.79,28.61 41.6,29.95 C41.42,31.29 41.32,33.07 40.88,36.1 C40.43,39.17 37.81,40.88 35.32,40.92 C31.62,40.98 29.43,42.87 28.17,49.29 C26.91,55.71 19.1,92.03 19.1,92.03 C18.05,99.1 20.5,102.06 33.18,102.06 L94.8,102.06 C107.5,102.06 109.95,99.1 108.89,92.03 Z" fill="#FF4638"/>
  <path d="M88.5,58.82 L84.78,52.75 L76.54,51.33 L73.54,53.12 C72.84,53.54 71.97,53.51 71.29,53.07 L69.74,52.05 L58.33,52.14 L57.14,53 C56.45,53.5 55.52,53.53 54.8,53.09 L52.06,51.41 L39.5,58.82 L35.03,84.32 L35.24,88.93 C35.28,89.87 36.06,90.61 37,90.61 L91.01,90.61 C91.95,90.61 92.73,89.87 92.77,88.93 L92.98,84.32 L88.5,58.82 Z" fill="#4E342E"/>
  <path d="M78.64,72.46 L88.95,72.46 C89.92,72.46 90.66,71.58 90.49,70.63 L89.54,65.18 C89.41,64.43 88.76,63.89 88,63.89 L78,63.89 C77.06,63.89 76.34,64.71 76.45,65.64 L77.1,71.09 C77.18,71.87 77.85,72.46 78.64,72.46 Z" fill="#F5F5F5"/>
  <path d="M59.39,60.4 L68.74,60.4 C69.63,60.4 70.35,59.65 70.3,58.76 L69.99,52.81 C69.95,51.98 69.26,51.33 68.43,51.33 L59.7,51.33 C58.87,51.33 58.18,51.98 58.14,52.81 L57.83,58.76 C57.78,59.65 58.5,60.4 59.39,60.4 Z" fill="#F5F5F5"/>
  <path d="M69.75,76.97 L58.38,76.97 C57.55,76.97 56.86,77.62 56.82,78.45 L56.54,83.9 C56.49,84.79 57.21,85.54 58.1,85.54 L70.03,85.54 C70.92,85.54 71.64,84.79 71.59,83.9 L71.31,78.45 C71.27,77.62 70.58,76.97 69.75,76.97 Z" fill="#F5F5F5"/>
  <path d="M58.79,72.46 L69.33,72.46 C70.22,72.46 70.94,71.71 70.89,70.82 L70.61,65.37 C70.57,64.54 69.88,63.89 69.05,63.89 L59.07,63.89 C58.24,63.89 57.55,64.54 57.51,65.37 L57.23,70.82 C57.19,71.71 57.9,72.46 58.79,72.46 Z" fill="#F5F5F5"/>
  <path d="M48.51,76.97 L37.63,76.97 C36.87,76.97 36.22,77.52 36.09,78.26 L35.14,83.71 C34.97,84.67 35.71,85.54 36.68,85.54 L47.87,85.54 C48.66,85.54 49.33,84.95 49.42,84.16 L50.07,78.71 C50.17,77.79 49.45,76.97 48.51,76.97 Z" fill="#F5F5F5"/>
  <path d="M39.05,72.46 L49.48,72.46 C50.27,72.46 50.94,71.87 51.03,71.08 L51.68,65.63 C51.79,64.7 51.07,63.88 50.13,63.88 L40.01,63.88 C39.25,63.88 38.6,64.43 38.47,65.17 L37.52,70.62 C37.34,71.58 38.08,72.46 39.05,72.46 Z" fill="#F5F5F5"/>
  <path d="M77.26,60.4 L86.92,60.4 C87.89,60.4 88.63,59.52 88.46,58.57 L87.42,52.62 C87.29,51.87 86.64,51.33 85.88,51.33 L76.55,51.33 C75.61,51.33 74.89,52.15 75,53.08 L75.71,59.03 C75.8,59.81 76.47,60.4 77.26,60.4 Z" fill="#F5F5F5"/>
  <path d="M52.42,59.02 L53.13,53.07 C53.24,52.14 52.52,51.32 51.58,51.32 L42.12,51.32 C41.36,51.32 40.71,51.87 40.58,52.61 L39.54,58.56 C39.37,59.52 40.11,60.39 41.08,60.39 L50.87,60.39 C51.66,60.4 52.33,59.81 52.42,59.02 Z" fill="#F5F5F5"/>
  <path d="M78.06,78.72 L78.71,84.17 C78.8,84.96 79.47,85.55 80.26,85.55 L91.32,85.55 C92.29,85.55 93.03,84.67 92.86,83.72 L91.91,78.27 C91.78,77.52 91.13,76.98 90.37,76.98 L79.61,76.98 C78.68,76.97 77.95,77.79 78.06,78.72 Z" fill="#F5F5F5"/>
</svg>
